X: 9307
T: Dances At Kinvara, The
R: barndance
M: 4/4
K: Gmajor
(3GGG B2- B>dB>G|c2 D2 A3 G|F>GA>B c>de>f|g>fa>f g>d^c>d|
(3BAB G2 D>Gc>B|(3ABA D2 A3 G|F>GA>B c>AF>A|(3GGG F>A G2:|
B2 d>B c2 e>c|d2 b2 b>d (3efg|a>gf>e d>cB>A|G2 (3ggg g2 (3def|
g2 d>B e2 c>A|d2 B>G E>BA>G|F>GA>B c>AF>A|(3GGG F>A G2:|

